X:1
T:James Gibb editions
T:Jesu, all hail, who for our sin - Barnby
%%score [ ( 1 2 ) ( 3 4 ) ]
L:1/8
Q:1/4=69
M:4/4
K:Eb
V:1 treble nm="Midi_74"
V:2 treble 
V:3 bass nm="Midi_74"
V:4 bass 
V:1
!mf!"^886. 886""^Jesu, all hail, who for our sin""^Joseph Barnby\n(1838-96)" G2 | F2 E2 c2 B2 | %2
 B2 A2 G2 || G2 |"^cresc." =A2 B2 e2 d2 | c2 c2 B2 ||!p! =A2 | G2 G2 G2 ^F2 | G6 ||[M:4/4]!mf! D2 | %10
 E2 F2 G2 c2 | B2 A2 G2 || F2 |"^cresc." G2 =A2 B2 e2 | c2 c2 B2 ||!f! B2 | e2 B2 AG F2 | E6 || %18
 A4 G4 |] %19
V:2
 E2 | D2 E2 E2 _D2 | _D2 C2 B,2 || B,2 | C2 B,2 C2 D2 | ED E2 D2 || C2 | =B,2 _B,2 =A,2 D2 | D6 || %9
[M:4/4] =B,2 | C2 D2 E2 E2 | E2 D2 E2 || D2 | E2 E2 D2 G2 | E2 E2 D2 || F2 | E2 E2 C2 D2 | E6 || %18
 E4 E4 |] %19
V:3
 B,2 | A,2 G,2 A,2 E,2 | E,2 E,2 E,2 || G,2 | F,2 F,2 F,2 B,2 | B,2 =A,2 B,2 || E2 | %7
 D2 D2 D2 =A,2 | =B,6 ||[M:4/4] G,2 | G,2 F,2 E,2 F,2 | F,2 B,2 B,2 || B,2 | B,2 C2 B,2 B,2 | %14
 B,G, =A,2 B,2 || D2 | E2 _D2"^rall." CB, A,2 | G,6 || C4 B,4 |] %19
V:4
 E,2 | B,,2 C,2 A,,2 G,,2 | A,,2 C,2 E,2 || E,2 | E,2 D,2 =A,,2 B,,2 | F,2 F,2 B,,2 || C,2 | %7
 D,2 D,2 D,2 D,2 | G,,6 ||[M:4/4] G,,2 | C,2 C,2 C,2 A,,2 | B,,2 B,,2 E,2 || B,,2 | %13
 E,2 C,2 G,2 E,2 | F,2 F,2 B,2 || !courtesy!_A,2 | G,2 G,,2 A,,2 B,,2 | E,6 || A,,4 E,4 |] %19

